src/svg/contributions.svg

<svg viewBox="0 0 259 103" xmlns="http://www.w3.org/2000/svg" fill-rule="evenodd" clip-rule="evenodd" stroke-linecap="round"><path d="M102.393 26.416h3.222a66.116 66.116 0 0 0-5.976 15.85 55.79 55.79 0 0 0-1.446 12.568 41.425 41.425 0 0 0 .488 6.552c.621 3.873 1.833 7.182 3.638 9.927a15.097 15.097 0 0 0 3.429 3.762 12.465 12.465 0 0 0 7.777 2.513 13.957 13.957 0 0 0 4.94-.838c2.249-.845 4.134-2.327 5.656-4.448l.147-.207a18.742 18.742 0 0 0 2.409-5.048c.509-1.603.889-3.38 1.138-5.33.229-1.846.349-3.705.359-5.565V41.65h2.685v14.746c.098 6.804 1.392 12.037 3.882 15.699a11.928 11.928 0 0 0 8.647 5.358c.703.091 1.411.136 2.12.135a12.461 12.461 0 0 0 9.742-4.368 17.182 17.182 0 0 0 1.439-1.882c2.315-3.485 3.661-7.904 4.04-13.257.075-1.081.112-2.164.111-3.247a56.579 56.579 0 0 0-1.709-13.672c-1.139-4.59-3.044-9.505-5.713-14.746h3.223l2.343 5.273a53.22 53.22 0 0 1 3.965 14.882c.324 2.693.484 5.404.479 8.117a45.743 45.743 0 0 1-.569 7.438c-.446 2.705-1.155 5.155-2.128 7.35a23.122 23.122 0 0 1-2.113 3.791 16.788 16.788 0 0 1-4.451 4.488c-2.309 1.543-4.976 2.363-8.001 2.46-.203.007-.406.01-.609.01a18.74 18.74 0 0 1-4.716-.564 13.99 13.99 0 0 1-5.587-2.854c-2.632-2.22-4.523-5.382-5.672-9.486a17.684 17.684 0 0 1-.09-.329 23.826 23.826 0 0 1-1.693 4.543c-.966 1.927-2.17 3.55-3.613 4.871-.149.137-.301.27-.456.401a14.278 14.278 0 0 1-6.873 3.132c-1.133.195-2.28.29-3.429.286a15.801 15.801 0 0 1-6.615-1.346c-2.221-1.009-4.15-2.587-5.787-4.732a20.162 20.162 0 0 1-.684-.954 25.788 25.788 0 0 1-3.477-7.854c-.603-2.269-.99-4.741-1.16-7.417a51.308 51.308 0 0 1-.1-3.234 62.9 62.9 0 0 1 1.469-13.84 52.555 52.555 0 0 1 2.926-9.11l2.393-5.322zM20.215 0l.928 2.1c-2.34 1.551-4.583 3.865-6.73 6.94a48.26 48.26 0 0 0-2.304 3.655 62.726 62.726 0 0 0-4.238 9.091 80.68 80.68 0 0 0-2.549 8.097 81.864 81.864 0 0 0-2.658 18.096c-.012.397-.021.794-.027 1.191v2.539a81.711 81.711 0 0 0 2.441 19.604 77.863 77.863 0 0 0 3.349 10.499 63.437 63.437 0 0 0 3.438 7.226 47.918 47.918 0 0 0 2.915 4.625c1.072 1.489 2.168 2.79 3.289 3.901.94.943 1.969 1.792 3.074 2.534l-.928 2.099a26.054 26.054 0 0 1-5.009-4.173c-1.344-1.417-2.638-3.044-3.881-4.88a49.81 49.81 0 0 1-1.437-2.25 60.264 60.264 0 0 1-4.815-10.086 77.136 77.136 0 0 1-2.461-7.932A85.07 85.07 0 0 1 .255 57.947 102.52 102.52 0 0 1 0 50.635a84.11 84.11 0 0 1 2.588-20.752 74.328 74.328 0 0 1 4.207-12.214 63.11 63.11 0 0 1 3.142-6.097 48.153 48.153 0 0 1 3.362-5.024c1.235-1.603 2.505-2.994 3.81-4.175A22.359 22.359 0 0 1 20.215 0zM238.77 102.197l-.928-2.099c3.385-2.279 6.527-6.055 9.424-11.328a68.365 68.365 0 0 0 5.225-12.33 81.08 81.08 0 0 0 1.489-5.346 85.456 85.456 0 0 0 2.284-16.611c.056-1.347.084-2.696.084-4.044a81.202 81.202 0 0 0-2.491-19.799 78.585 78.585 0 0 0-3.38-10.468 63.022 63.022 0 0 0-3.431-7.159c-2.881-5.127-5.949-8.765-9.204-10.913l.928-2.1a23.748 23.748 0 0 1 4.358 3.582c1.257 1.291 2.48 2.785 3.671 4.48a51.33 51.33 0 0 1 2.249 3.51c3.174 5.404 5.624 11.508 7.349 18.311 1.725 6.803 2.587 14.046 2.587 21.728a85.994 85.994 0 0 1-2.612 21.265 74.522 74.522 0 0 1-3.354 10.204 58.572 58.572 0 0 1-3.921 7.814 44.856 44.856 0 0 1-3.638 5.217c-1.435 1.759-2.931 3.263-4.488 4.513a23.652 23.652 0 0 1-2.201 1.573zM78.076 6.689h2.637a13.122 13.122 0 0 1-.609 4.089 10.699 10.699 0 0 1-3.078 4.701 12.49 12.49 0 0 1-5.585 2.852c-1.275.302-2.66.458-4.157.467l-.145.001a19.077 19.077 0 0 1-4.161-.429c-1.921-.43-3.591-1.183-5.012-2.26-.263-.199-.518-.41-.764-.631a10.979 10.979 0 0 1-3.636-7.537 14.978 14.978 0 0 1-.05-1.253h2.636c-.009.971.107 1.939.344 2.88a7.928 7.928 0 0 0 2.44 4.03c1.855 1.643 4.59 2.465 8.203 2.465a17.38 17.38 0 0 0 3.171-.27c1.183-.219 2.24-.572 3.171-1.057a8.766 8.766 0 0 0 1.739-1.187 8.268 8.268 0 0 0 2.756-5.295c.068-.519.101-1.042.1-1.566zm124.365 0h2.637a13.151 13.151 0 0 1-.608 4.089 10.699 10.699 0 0 1-3.078 4.701 12.493 12.493 0 0 1-5.586 2.852c-1.275.302-2.66.458-4.157.467l-.145.001a19.077 19.077 0 0 1-4.161-.429c-1.921-.43-3.591-1.183-5.012-2.26-.263-.199-.518-.41-.764-.631a10.978 10.978 0 0 1-3.635-7.537 15.418 15.418 0 0 1-.051-1.253h2.637c-.009.971.107 1.939.344 2.88a7.933 7.933 0 0 0 2.439 4.03c1.855 1.643 4.59 2.465 8.203 2.465a17.38 17.38 0 0 0 3.171-.27c1.183-.219 2.24-.572 3.171-1.057a8.766 8.766 0 0 0 1.739-1.187 8.268 8.268 0 0 0 2.756-5.295c.068-.519.101-1.042.1-1.566z" fill="none" stroke="#000" stroke-width=".71"/></svg>

<?xml version="1.0" encoding="UTF-8" standalone="no"?>
<!DOCTYPE svg PUBLIC "-//W3C//DTD SVG 1.1//EN" "http://www.w3.org/Graphics/SVG/1.1/DTD/svg11.dtd">
<svg width="100%" height="100%" viewBox="0 0 259 103" version="1.1" xmlns="http://www.w3.org/2000/svg" xmlns:xlink="http://www.w3.org/1999/xlink" xml:space="preserve" xmlns:serif="http://www.serif.com/" style="fill-rule:evenodd;clip-rule:evenodd;stroke-linecap:round;">
    <path d="M102.393,26.416L105.615,26.416C102.952,31.421 100.943,36.748 99.639,42.266C98.682,46.387 98.197,50.603 98.193,54.834C98.182,57.027 98.345,59.218 98.681,61.386C99.302,65.259 100.514,68.568 102.319,71.313C103.241,72.752 104.4,74.024 105.748,75.075C107.984,76.763 110.724,77.648 113.525,77.588C115.209,77.609 116.882,77.325 118.465,76.75C120.714,75.905 122.599,74.423 124.121,72.302C124.171,72.233 124.22,72.164 124.268,72.095C125.319,70.542 126.131,68.841 126.677,67.047C127.186,65.444 127.566,63.667 127.815,61.717C128.044,59.871 128.164,58.012 128.174,56.152L128.174,41.65L130.859,41.65L130.859,56.396C130.957,63.2 132.251,68.433 134.741,72.095C136.677,75.081 139.852,77.048 143.388,77.453C144.091,77.544 144.799,77.589 145.508,77.588C149.244,77.668 152.825,76.063 155.25,73.22C155.772,72.627 156.253,71.998 156.689,71.338C159.004,67.853 160.35,63.434 160.729,58.081C160.804,57 160.841,55.917 160.84,54.834C160.829,50.224 160.256,45.633 159.131,41.162C157.992,36.572 156.087,31.657 153.418,26.416L156.641,26.416L158.984,31.689C161.02,36.431 162.356,41.444 162.949,46.571C163.273,49.264 163.433,51.975 163.428,54.688C163.441,57.179 163.251,59.666 162.859,62.126C162.413,64.831 161.704,67.281 160.731,69.476C160.147,70.803 159.44,72.072 158.618,73.267C157.432,75.031 155.922,76.554 154.167,77.755C151.858,79.298 149.191,80.118 146.166,80.215C145.963,80.222 145.76,80.225 145.557,80.225C143.967,80.238 142.383,80.048 140.841,79.661C138.787,79.145 136.876,78.169 135.254,76.807C132.622,74.587 130.731,71.425 129.582,67.321C129.551,67.212 129.521,67.102 129.492,66.992C129.084,68.56 128.516,70.082 127.799,71.535C126.833,73.462 125.629,75.085 124.186,76.406C124.037,76.543 123.885,76.676 123.73,76.807C121.762,78.449 119.387,79.531 116.857,79.939C115.724,80.134 114.577,80.229 113.428,80.225C111.152,80.258 108.895,79.799 106.813,78.879C104.592,77.87 102.663,76.292 101.026,74.147C100.789,73.836 100.561,73.518 100.342,73.193C98.752,70.788 97.577,68.133 96.865,65.339C96.262,63.07 95.875,60.598 95.705,57.922C95.638,56.845 95.604,55.767 95.605,54.688C95.581,50.035 96.074,45.393 97.074,40.848C97.77,37.729 98.75,34.679 100,31.738L102.393,26.416ZM20.215,0L21.143,2.1C18.803,3.651 16.56,5.965 14.413,9.04C13.591,10.223 12.822,11.443 12.109,12.695C10.456,15.607 9.039,18.647 7.871,21.786C6.88,24.438 6.029,27.141 5.322,29.883C3.763,35.797 2.871,41.867 2.664,47.979C2.652,48.376 2.643,48.773 2.637,49.17L2.637,51.709C2.655,58.105 3.424,64.476 4.928,70.693C4.977,70.9 5.027,71.107 5.078,71.313C5.945,74.887 7.064,78.396 8.427,81.812C9.42,84.291 10.568,86.704 11.865,89.038C12.748,90.634 13.721,92.178 14.78,93.663C15.852,95.152 16.948,96.453 18.069,97.564C19.009,98.507 20.038,99.356 21.143,100.098L20.215,102.197C18.377,101.021 16.694,99.619 15.206,98.024C13.862,96.607 12.568,94.98 11.325,93.144C10.826,92.407 10.347,91.657 9.888,90.894C7.974,87.688 6.362,84.312 5.073,80.808C4.111,78.21 3.289,75.562 2.612,72.876C1.385,67.979 0.596,62.983 0.255,57.947C0.083,55.513 -0.002,53.075 0,50.635C0,43.604 0.863,36.686 2.588,29.883C3.633,25.697 5.041,21.611 6.795,17.669C7.731,15.581 8.78,13.546 9.937,11.572C10.951,9.829 12.074,8.151 13.299,6.548C14.534,4.945 15.804,3.554 17.109,2.373C18.073,1.493 19.112,0.699 20.215,0ZM238.77,102.197L237.842,100.098C241.227,97.819 244.369,94.043 247.266,88.77C249.407,84.841 251.157,80.711 252.491,76.44C253.048,74.676 253.545,72.892 253.98,71.094C255.284,65.645 256.049,60.082 256.264,54.483C256.32,53.136 256.348,51.787 256.348,50.439C256.335,43.762 255.498,37.112 253.857,30.64C252.976,27.076 251.847,23.578 250.477,20.172C249.485,17.716 248.339,15.325 247.046,13.013C244.165,7.886 241.097,4.248 237.842,2.1L238.77,0C240.36,1.017 241.823,2.219 243.128,3.582C244.385,4.873 245.608,6.367 246.799,8.062C247.596,9.201 248.346,10.372 249.048,11.572C252.222,16.976 254.672,23.08 256.397,29.883C258.122,36.686 258.984,43.929 258.984,51.611C259.003,58.78 258.126,65.924 256.372,72.876C255.501,76.353 254.38,79.764 253.018,83.08C251.907,85.779 250.597,88.391 249.097,90.894C248.009,92.717 246.794,94.46 245.459,96.111C244.024,97.87 242.528,99.374 240.971,100.624C240.268,101.19 239.533,101.715 238.77,102.197ZM78.076,6.689L80.713,6.689C80.727,8.076 80.522,9.456 80.104,10.778C79.515,12.591 78.453,14.214 77.026,15.479C75.437,16.889 73.515,17.871 71.441,18.331C70.166,18.633 68.781,18.789 67.284,18.798C67.236,18.798 67.187,18.799 67.139,18.799C65.74,18.809 64.345,18.665 62.978,18.37C61.057,17.94 59.387,17.187 57.966,16.11C57.703,15.911 57.448,15.7 57.202,15.479C55.043,13.546 53.735,10.835 53.566,7.942C53.532,7.525 53.515,7.107 53.516,6.689L56.152,6.689C56.143,7.66 56.259,8.628 56.496,9.569C56.882,11.128 57.733,12.534 58.936,13.599C60.791,15.242 63.526,16.064 67.139,16.064C68.202,16.071 69.263,15.981 70.31,15.794C71.493,15.575 72.55,15.222 73.481,14.737C74.106,14.413 74.69,14.014 75.22,13.55C76.766,12.19 77.749,10.301 77.976,8.255C78.044,7.736 78.077,7.213 78.076,6.689ZM202.441,6.689L205.078,6.689C205.092,8.076 204.887,9.456 204.47,10.778C203.881,12.591 202.819,14.214 201.392,15.479C199.803,16.889 197.88,17.871 195.806,18.331C194.531,18.633 193.146,18.789 191.649,18.798C191.601,18.798 191.552,18.799 191.504,18.799C190.105,18.809 188.71,18.665 187.343,18.37C185.422,17.94 183.752,17.187 182.331,16.11C182.068,15.911 181.813,15.7 181.567,15.479C179.408,13.546 178.101,10.835 177.932,7.942C177.898,7.525 177.881,7.107 177.881,6.689L180.518,6.689C180.509,7.66 180.625,8.628 180.862,9.569C181.248,11.128 182.099,12.534 183.301,13.599C185.156,15.242 187.891,16.064 191.504,16.064C192.567,16.071 193.628,15.981 194.675,15.794C195.858,15.575 196.915,15.222 197.846,14.737C198.471,14.413 199.055,14.014 199.585,13.55C201.131,12.19 202.114,10.301 202.341,8.255C202.409,7.736 202.442,7.213 202.441,6.689Z" style="fill:none;stroke:black;stroke-width:0.71px;"/>
</svg>
